x-pack/plugins/enterprise_search/public/assets/source_icons/jira_server.svg

<svg fill="none" height="100" viewBox="0 0 100 100" width="100" xmlns="http://www.w3.org/2000/svg" xmlns:xlink="http://www.w3.org/1999/xlink"><linearGradient id="a"><stop offset=".18" stop-color="#0052cc"/><stop offset="1" stop-color="#2684ff"/></linearGradient><linearGradient id="b" gradientUnits="userSpaceOnUse" x1="47.7365" x2="27.0869" xlink:href="#a" y1="20.2349" y2="40.8846"/><linearGradient id="c" gradientUnits="userSpaceOnUse" x1="1416.82" x2="2098.99" xlink:href="#a" y1="3129.77" y2="2687.25"/><path d="m97.5915 47.1319-43.0961-42.98539-4.1465-4.14651-32.3705 32.3704-14.81682 14.7615c-.36821.3672-.6604.8034-.85971 1.2837s-.30187.9952-.30187 1.5153c0 .52.10256 1.0348.30187 1.5151s.4915.9166.85971 1.2837l29.60612 29.6613 17.5812 17.6089 32.4395-32.3979.4976-.4976 14.3055-14.3194c.3765-.3681.6757-.8078.8799-1.2932s.3096-1.0066.3096-1.5334c0-.5266-.1054-1.0478-.3096-1.5332s-.5034-.9251-.8799-1.2933zm-47.2426 17.6504-14.7892-14.7893 14.7892-14.7891 14.7892 14.7891z" fill="#2684ff"/><path d="m50.3488 35.2038c-4.6294-4.6608-7.2278-10.9635-7.2278-17.5328s2.5984-12.872 7.2278-17.532816l-32.4257 32.301316 17.6089 17.6089z" fill="url(#b)"/><path d="m65.207 49.8962-14.8583 14.886c2.3153 2.3109 4.1522 5.0556 5.4054 8.0771 1.2532 3.0216 1.8983 6.2607 1.8983 9.5318 0 3.2712-.6451 6.5101-1.8983 9.5317s-3.0901 5.7663-5.4054 8.0771l32.481-32.4395z" fill="url(#c)"/></svg>

<svg fill="none" height="100" width="100" xmlns="http://www.w3.org/2000/svg" xmlns:xlink="http://www.w3.org/1999/xlink"><linearGradient id="a"><stop offset=".18" stop-color="#0052cc"/><stop offset="1" stop-color="#2684ff"/></linearGradient><linearGradient id="b" gradientUnits="userSpaceOnUse" x1="47.736" x2="27.087" xlink:href="#a" y1="20.235" y2="40.885"/><linearGradient id="c" gradientUnits="userSpaceOnUse" x1="1416.82" x2="2098.99" xlink:href="#a" y1="3129.77" y2="2687.25"/><path d="M97.591 47.132 54.495 4.147 50.35 0l-32.37 32.37L3.161 47.132a3.952 3.952 0 0 0 0 5.598L32.768 82.39 50.348 100l32.44-32.398.498-.498 14.306-14.319a3.952 3.952 0 0 0 0-5.653zM50.35 64.782l-14.79-14.789 14.79-14.79 14.79 14.79z" fill="#2684ff"/><path d="M50.349 35.204a24.88 24.88 0 0 1 0-35.066L17.923 32.44l17.609 17.61z" fill="url(#b)"/><path d="M65.207 49.896 50.349 64.782a24.879 24.879 0 0 1 0 35.218l32.48-32.44z" fill="url(#c)"/></svg>
